X: 1
T: Tracy LaFleur
C: Mike Mahar
R: reel
Z: 2006 John Chambers <jc:trillian.mit.edu>
M: C|
L: 1/8
K: G
|: "G"G2G2 GABc | d2e2 "C"c4 \
|1,3 "G"B2Bc d2B2 | "D7"A2AB A2D2 \
:|2,4 "G"dcB2 "D7"A2D2 | "G"G8 :|
|: "C"g2g2 gfef | "G"e2d2 d4 \
|1,3 "D7"A2AB c2A2 | "G"B2Bc d2B2 \
:|2 "D7"dcB2 A2B2 | "G"G8 \
:|4 "D7"A2B2 c2F2 | "G"G8 |]
